X:1
T:Title
%%score ( 1 2 ) ( 3 4 )
L:1/8
Q:1/4=100
M:3/4
K:Eb
V:1 treble nm="Midi_74"
V:2 treble 
V:3 bass nm="Midi_74"
V:4 bass 
V:1
"^Horbury (64. 64. 664)""^Nearer, my God, to Thee""^John Bacchus Dykes\n(1823-76)""^Sarah Flower Adams\n(1805-48)" E2 F2 G2 | %1
w: ~Near- er my|
w: ~~~~~Though, like the|
w: ~~There let the|
w: ~Then, with my|
w: ~Or if on|
 B3 A G2 | G2 (FG) A2 | G6 | G2 c2 c2 | B3 =A G2 | G2 (^FG) =A2 | (G4 B2) | B2 _d2 c2 | B3 B (AF) | %10
w: God, to Thee,|near- er * to|Thee!|||||Still all my|song shall be, *|
w: wan- der- er,|the sun * gone|down,|||||Yet in my|dreams I'd be *|
w: way ap- pear,|steps un\- * to|heaven;|||||An- gels to|bec- kon me *|
w: wak- ing thoughts|bright with * Thy|praise,|||||So by my|woes to be *|
w: joy- ful wing|cleav- ing * the|sky,|||||Still all my|song shall be *|
 E2 F2 (GB) | B3 A G2 | G2 (FE) F2 | E6 |] %14
w: Near- er my *|God, to Thee,|near- er * to|Thee.|
w: ||||
w: ||||
w: ||||
w: ||||
V:2
 E2 E2 E2 | E3 E E2 | E2 E2 D2 | E6 | C2 (CD) E2 | D3 D D2 | D2 D2 D2 | D6 | E2 F2 E2 | E3 C =D2 | %10
 E2 E2 E2 | E3 E E2 | E2 B,2 B,2 | B,6 |] %14
V:3
 G,2 A,2 B,2 | C3 C B,2 | B,2 B,2 B,2 | B,6 | G,2 (E,F,) (G,=A,) | B,3 C B,2 | B,2 (=A,B,) C2 | %7
w: ||||E'en though * it *|be a cross|that rais\- * eth|
w: ||||Dark- ness * be *|o- ver me,|my rest * a|
w: ||||All that * Thou *|send- est me|in mer\- * cy|
w: ||||Out of * my *|ston- y griefs|Beth- el * I'll|
w: ||||Sun, moon, * and *|stars for- got,|Up- wards * I|
 (B,4 A,2) | G,2 A,3 F, | G,3 G, (F,A,) | G,2 A,2 (B,_D) | C3 C B,2 | B,2 G,2 A,2 | G,6 |] %14
w: me; *|||||||
w: stone; *|||||||
w: given: *|||||||
w: raise; *|||||||
w: fly, *|||||||
V:4
 E,2 E,2 E,2 | E,3 E, E,2 | B,,2 B,,2 B,,2 | E,6 | E,2 C,2 C,2 | G,3 G, G,2 | D,2 D,2 D,2 | %7
 (G,4 F,2) | E,2 _D,2 A,,2 | B,,3 B,, B,,2 | E,2 E,2 E,2 | A,,3 A,, E,2 | B,,2 B,,2 B,,2 | E,6 |] %14

